!!!id: BC105
!!!page: 131b
!!!COM:Anonymous
!!!LYR:Anonymous
!!!PTL@@FR: Les 100 plus belles chansons
!!!OTL@@FR: Il n'y a qu'un seul Dieu
!!!PUB:La Bonne Chanson, inc.
!!!YEM: On ne peut reproduire, enregistrer ou diffuser en tout ou en partie le présent ouvrage, sous quelque procédé que ce soit, électronique, mécanique, photographique, sonore, magnétique ou autre, sans avoir obtenu au préalable l'autorisation écrite de l'éditrice.
!!!PDT: 2011
!!!SMA:2012 Bibliothèque nationale du Québec; Biblothèque nationale du Canada
!!!AGN-type: Chanson énumérative, 12:1(6+4/5),R:2(11;6)
!!!AGN-rime: monorhyme /ã/
**kern	**text	**text	**text
*clefG2	*	*	*
!!LO:TX:a:t=Solo
!!LO:TX:a:t=Refrain
*M2/4	*	*	*
*k[f#]	*	*	*
*>Refrain1	*>Refrain1	*>Refrain1	*>Refrain1
*	*pline:R1	*	*
*	*refrain	*	*
*	*italic	*	*
{8d	Il	.	.
8d	n'y a	.	.
=1	=1	=1	=1
4g	qu'un	.	.
4a	seul	.	.
=2	=2	=2	=2
8b	Dieu	.	.
8dd	qui	.	.
8dd	rè-	.	.
8cc	gne	.	.
=3	=3	=3	=3
4b	dans	.	.
4a	les	.	.
!!LO:PB:g=original
=4	=4	=4	=4
4g}	cieux!	.	.
*	*pline:R1r	*	*
!!LO:TX:a:B:t=Choeur
{8d	Il	.	.
8d	n'y a	.	.
=5	=5	=5	=5
4g	qu'un	.	.
4a	seul	.	.
=6	=6	=6	=6
8b	Dieu	.	.
!!LO:PB:g=original
8dd	qui	.	.
8dd	rè-	.	.
8cc	-gne	.	.
=7	=7	=7	=7
4b	dans	.	.
4a	les	.	.
=8	=8	=8	=8
!!LO:TX:a:B:t=Fin
4g	cieux!	.	.
*	*Xitalic	*	*
*	*Xrefrain	*	*
!!LO:PB:g=original
=||9	=||9	=||9	=||9
8r}	.	.	.
!!LO:TX:a:B:t=Solo
*	*v:1	*v:2	*v:3
{{8g	On	"	"
=8	=8	=8	=8
8g	dit	"	.
8g	qu'il	"	.
8a	y en	"	.
8f#	a	"	.
=9	=9	=9	=9
4g	deux.	trois.	quatr'
4r}	.	.	.
=10||:	=10	=10||:	=10||:
!!LO:TX:a:i:t=(à reprendre au besoin)
*	*pline:1Hb	*pline:2Hb	*
*^	*	*	*
{4g/	8g\	Deux	Les	Ca-
!	!missing notehead parentheses	!	!	!
.	8g	.	.	-thrin'
*v	*v	*	*	*
8a	Tes-	Trois	de
8f#	-ta-	--Ri-	Rus-
=11||	=11	=11||	=11||
*M3/4	*	*	*
[4g	-ments:	-vièr's,	-sie,
!!LO:PB:g=original
=12:||	=12	=12:||	=12:||
8g]}	.	.	.
*>Refrain2	*>Refrain2	*>Refrain2	*>Refrain2
*	*pline:R2	*	*
!!LO:TX:a:B:t=Solo
*	*refrain	*	*
*	*italic	*	*
{8d	L'an -	.	.
=13	=13	=13	=13
8g	-cien	.	.
8a	et	.	.
8b	le	.	.
8cc	nou-	.	.
=14	=14	=14	=14
(8ddL	-veau.	.	.
*	*Xitalic	*	*
*	*Xrefrain	*	*
8bJ	.	.	.
8eeL	.	.	.
8bJ	.	.	.
=15	=15	=15	=15
8ddL	.	.	.
8bJ	.	.	.
8eeL	.	.	.
8bJ	.	.	.
=16	=16	=16	=16
4dd)}}	.	.	.
!!LO:TX:i:t=[reprendre du début]
=:|	=:|	=:|	=:|
*-	*-	*-	*-
!!!EED-1: Karissa Tang
!!!EEV-1: 2026/01/13
!!!EED-2: Avery Yewon Hong
!!!EEV-2: 2026/01/21
!!!EED-3: Ève Poudrier
!!!EEV-3: 2026/03/29
!!!EED:pr-3: Ève Poudrier
!!!EEV:pr-3: 2026/03/12
